cloud-off-outline.svg

<svg fill="currentColor" viewBox="0 0 24 24"><path d="M19.8 22.6 17.15 20H6.5q-2.3 0-3.9-1.6T1 14.5q0-1.92 1.19-3.42 1.19-1.51 3.06-1.93.08-.2.15-.39.1-.19.15-.41L1.4 4.2l1.4-1.4 18.4 18.4M6.5 18h8.65L7.1 9.95q-.05.28-.07.55-.03.23-.03.5h-.5q-1.45 0-2.47 1.03Q3 13.05 3 14.5T4.03 17q1.02 1 2.47 1m15.1.75-1.45-1.4q.43-.35.64-.81T21 15.5q0-1.05-.73-1.77-.72-.73-1.77-.73H17v-2q0-2.07-1.46-3.54Q14.08 6 12 6q-.67 0-1.3.16-.63.17-1.2.52L8.05 5.23q.88-.6 1.86-.92Q10.9 4 12 4q2.93 0 4.96 2.04Q19 8.07 19 11q1.73.2 2.86 1.5 1.14 1.28 1.14 3 0 1-.37 1.81-.38.84-1.03 1.44m-6.77-6.72"/></svg>

<svg  viewBox="0 0 24 24" fill="currentColor"><path  d="M19.8 22.6L17.15 20H6.5Q4.2 20 2.6 18.4T1 14.5Q1 12.58 2.19 11.08 3.38 9.57 5.25 9.15 5.33 8.95 5.4 8.76 5.5 8.57 5.55 8.35L1.4 4.2L2.8 2.8L21.2 21.2M6.5 18H15.15L7.1 9.95Q7.05 10.23 7.03 10.5 7 10.73 7 11H6.5Q5.05 11 4.03 12.03 3 13.05 3 14.5 3 15.95 4.03 17 5.05 18 6.5 18M11.13 14M21.6 18.75L20.15 17.35Q20.58 17 20.79 16.54 21 16.08 21 15.5 21 14.45 20.27 13.73 19.55 13 18.5 13H17V11Q17 8.93 15.54 7.46 14.08 6 12 6 11.33 6 10.7 6.16 10.07 6.33 9.5 6.68L8.05 5.23Q8.93 4.63 9.91 4.31 10.9 4 12 4 14.93 4 16.96 6.04 19 8.07 19 11 20.73 11.2 21.86 12.5 23 13.78 23 15.5 23 16.5 22.63 17.31 22.25 18.15 21.6 18.75M14.83 12.03Z"/></svg>
